images/nfts_market_place.svg

<svg width="32" height="32" viewBox="0 0 32 32" fill="none" xmlns="http://www.w3.org/2000/svg">
<path d="M5.68262 27.9434V30.856M26.987 30.856L26.987 27.9436" stroke="#445B74" stroke-width="2" stroke-linecap="round" stroke-linejoin="round"/>
<path d="M12.074 23.0449V23.9952C12.074 25.1714 11.6251 26.2994 10.826 27.1311C10.0269 27.9628 8.94317 28.43 7.81311 28.43C6.68306 28.43 5.59929 27.9628 4.80023 27.1311C4.00116 26.2994 3.55225 25.1714 3.55225 23.9952V23.0449" stroke="#445B74" stroke-width="2" stroke-linecap="round" stroke-linejoin="round"/>
<path d="M20.595 23.0449V23.9952C20.595 25.1714 20.1461 26.2994 19.347 27.1311C18.5479 27.9628 17.4642 28.43 16.3341 28.43C15.2041 28.43 14.1203 27.9628 13.3212 27.1311C12.5222 26.2994 12.0732 25.1714 12.0732 23.9952V23.0449" stroke="#445B74" stroke-width="2" stroke-linecap="round" stroke-linejoin="round"/>
<path d="M29.1174 23.0449V23.9952C29.1174 25.1714 28.6685 26.2994 27.8695 27.1311C27.0704 27.9628 25.9866 28.43 24.8566 28.43C23.7265 28.43 22.6428 27.9628 21.8437 27.1311C21.0446 26.2994 20.5957 25.1714 20.5957 23.9952V23.0449" stroke="#445B74" stroke-width="2" stroke-linecap="round" stroke-linejoin="round"/>
<path fill-rule="evenodd" clip-rule="evenodd" d="M9.16968 13.2656H6.48618C6.02715 13.2656 5.58527 13.4215 5.2272 13.7026C4.86985 13.9832 4.61656 14.3717 4.49763 14.805C4.49472 14.8156 4.492 14.8262 4.48944 14.8369L2.57975 22.8123C2.50845 23.11 2.57749 23.4241 2.76712 23.6644C2.95675 23.9048 3.24607 24.0451 3.55226 24.0451H29.1175C29.4236 24.0451 29.713 23.9048 29.9026 23.6644C30.0922 23.4241 30.1613 23.11 30.09 22.8123L28.1803 14.8369C28.1777 14.8262 28.175 14.8156 28.1721 14.805C28.0531 14.3717 27.7999 13.9832 27.4425 13.7026C27.0844 13.4215 26.6426 13.2656 26.1835 13.2656H23.4984C23.4605 13.3022 23.4181 13.3348 23.3719 13.3626L20.205 15.2656H26.1835C26.186 15.2656 26.189 15.266 26.1927 15.2673C26.1964 15.2686 26.2015 15.271 26.2075 15.2758C26.2186 15.2845 26.2323 15.3009 26.2409 15.3262L27.8497 22.0451H4.81997L6.42881 15.3262C6.43743 15.3009 6.45113 15.2845 6.46223 15.2758C6.46823 15.271 6.47335 15.2686 6.47706 15.2673C6.48073 15.266 6.48371 15.2656 6.48618 15.2656H12.463L9.29612 13.3626C9.2499 13.3348 9.20759 13.3022 9.16968 13.2656Z" fill="#445B74"/>
<path d="M16.3019 2.46886C16.4988 2.35518 16.7414 2.35518 16.9383 2.46886L23.2301 6.10145C23.427 6.21513 23.5483 6.42521 23.5483 6.65256V13.9178C23.5483 14.1451 23.427 14.3552 23.2301 14.4689L16.9383 18.1015C16.7414 18.2151 16.4988 18.2151 16.3019 18.1015L10.0101 14.4689C9.8132 14.3552 9.69191 14.1451 9.69191 13.9178V6.65256C9.69191 6.42521 9.8132 6.21513 10.0101 6.10145L16.3019 2.46886Z" stroke="#1AC486" stroke-width="1.5"/>
<path d="M18.7669 6.85742C18.9783 6.85742 19.1481 6.92788 19.2762 7.0688C19.4107 7.20332 19.4779 7.37947 19.4779 7.59726V12.9875C19.4779 13.2117 19.4107 13.3943 19.2762 13.5352C19.1481 13.6697 18.9783 13.737 18.7669 13.737C18.5363 13.737 18.3506 13.6537 18.2096 13.4872L14.9909 9.36519V12.9875C14.9909 13.2117 14.9268 13.3943 14.7987 13.5352C14.677 13.6697 14.5104 13.737 14.2991 13.737C14.0877 13.737 13.9179 13.6697 13.7898 13.5352C13.6617 13.3943 13.5977 13.2117 13.5977 12.9875V7.59726C13.5977 7.37947 13.6617 7.20332 13.7898 7.0688C13.9243 6.92788 14.0973 6.85742 14.3087 6.85742C14.5457 6.85742 14.7282 6.94069 14.8563 7.10724L18.0751 11.2004V7.59726C18.0751 7.37947 18.1392 7.20332 18.2673 7.0688C18.3954 6.92788 18.562 6.85742 18.7669 6.85742Z" fill="#1AC486"/>
</svg>

<svg xmlns="http://www.w3.org/2000/svg" width="27.564" height="30.237" viewBox="0 0 27.564 30.237">
  <g id="nfts_market_place" transform="translate(-2.553 -1.619)">
    <path id="Path_2211" data-name="Path 2211" d="M5.683,27.943v2.913m21.3,0V27.944" fill="none" stroke="#445b74" stroke-linecap="round" stroke-linejoin="round" stroke-width="2"/>
    <path id="Path_2212" data-name="Path 2212" d="M12.074,23.045V24a4.528,4.528,0,0,1-1.248,3.136,4.144,4.144,0,0,1-6.026,0A4.528,4.528,0,0,1,3.552,24v-.95" fill="none" stroke="#445b74" stroke-linecap="round" stroke-linejoin="round" stroke-width="2"/>
    <path id="Path_2213" data-name="Path 2213" d="M20.595,23.045V24a4.528,4.528,0,0,1-1.248,3.136,4.144,4.144,0,0,1-6.026,0A4.529,4.529,0,0,1,12.073,24v-.95" fill="none" stroke="#445b74" stroke-linecap="round" stroke-linejoin="round" stroke-width="2"/>
    <path id="Path_2214" data-name="Path 2214" d="M29.117,23.045V24a4.529,4.529,0,0,1-1.248,3.136,4.144,4.144,0,0,1-6.026,0A4.528,4.528,0,0,1,20.6,24v-.95" fill="none" stroke="#445b74" stroke-linecap="round" stroke-linejoin="round" stroke-width="2"/>
    <path id="Path_2215" data-name="Path 2215" d="M9.17,13.266H6.486a2.038,2.038,0,0,0-1.259.437,2.111,2.111,0,0,0-.73,1.1l-.008.032L2.58,22.812a1,1,0,0,0,.973,1.233H29.118a1,1,0,0,0,.972-1.233l-1.91-7.975-.008-.032a2.111,2.111,0,0,0-.73-1.1,2.038,2.038,0,0,0-1.259-.437H23.5a.706.706,0,0,1-.126.1l-3.167,1.9h5.979l.009,0a.05.05,0,0,1,.015.009.108.108,0,0,1,.033.05l1.609,6.719H4.82l1.609-6.719a.108.108,0,0,1,.033-.05.05.05,0,0,1,.015-.009l.009,0h5.977L9.3,13.363A.705.705,0,0,1,9.17,13.266Z" fill="#445b74" fill-rule="evenodd"/>
    <path id="Path_2216" data-name="Path 2216" d="M16.3,2.469a.636.636,0,0,1,.636,0L23.23,6.1a.636.636,0,0,1,.318.551v7.265a.636.636,0,0,1-.318.551L16.938,18.1a.637.637,0,0,1-.636,0L10.01,14.469a.636.636,0,0,1-.318-.551V6.653A.636.636,0,0,1,10.01,6.1Z" fill="rgba(255,0,0,0)" stroke="#cd58c1" stroke-width="1.5"/>
    <path id="Path_2217" data-name="Path 2217" d="M18.767,6.857a.655.655,0,0,1,.509.211.715.715,0,0,1,.2.528v5.39a.761.761,0,0,1-.2.548.671.671,0,0,1-.509.2.694.694,0,0,1-.557-.25L14.991,9.365v3.622a.783.783,0,0,1-.192.548.64.64,0,0,1-.5.2.671.671,0,0,1-.509-.2.783.783,0,0,1-.192-.548V7.6a.735.735,0,0,1,.192-.528.686.686,0,0,1,.519-.211.65.65,0,0,1,.548.25L18.075,11.2V7.6a.735.735,0,0,1,.192-.528A.644.644,0,0,1,18.767,6.857Z" fill="#cd58c1"/>
  </g>
</svg>
